X:204
T:Midnight on the Water
R:waltz 32
S:Luke Thomassen
B:English Choice, Nick Barber, pub mally.com
M:3/4
L:1/8
Q:1/4=150
K:D
|:DE|"D"F2F3E|F2F3E|
FA-A3B|AF"A"ED "D"DE|
"G"F2d2Bd|"D"A3F DE|
F2AF"A"E>D|"D"D4:|
FA|"G"d2d3e|dcBA Bc|
"D"cd-dB AF|"D"D4d2|
"Em"e2e3f|"A"e3cde|
"D"f3afe|"D"dcBA Bc|
"Bm"cd-dc de|dcBA Bc|
"G"d3BAF|"D"D4 DE|
"G"F2d2 Bd|"D"A3FDE|
F2AF "A"E>D|"D"D4|]
W:Nick Barber has the B music repeat
W:and has Bminor chord in first bar, also
W:Dmajor chord in its ninth bar.

